X:1
T:Kellyburnbraes
M:6/8
L:1/8
K:Eb
 E| G3/2- F/2 G E3/2- F/2 E| G3/2 F/2 G E3| e3/2 d/2 e f/2- d3/2 B|\
 cBG B2 B| e3/2 d/2 e G3/2 A/2 B| c3/2 B/2 c G3/2 A/2 B| c3/2 d/2 e B/2 G3/2 E|\
 F3/2 E/2 F E2 B| e3/2 d/2 e G3/2 A/2 B| c3/2 B/2 c G3/2 A/2 B| c3/2 d/2 e B/2 G3/2 E|\
 F3/2 E/2 F E2||
